data/playwrite-cl.svg

<svg width="104.87" height="31.248" viewBox="0 0 104.87 31.248" xmlns="http://www.w3.org/2000/svg"><path transform="translate(0 22.274) scale(.014 -.014)" d="m500 436q-17-1-26 10t-9 28q0 18 6.5 27.5t22.5 10.5q72 3 132.5 20t109 46 82 68.5 51 89 17.5 106.5q0 54-22 96.5t-64 70.5-102 42.5-135 14.5q-100 0-181-19.5t-146-59.5-117-99q-11-12-24.5-13.5t-28.5 9.5q-16 13-17.5 26.5t9.5 26.5q40 51 93 90t117.5 66 139.5 41 160 14q99 0 175.5-20.5t128.5-59.5 79-96 27-129q0-70-21.5-130t-63-109.5-100-85-132.5-57-161-25.5zm-271-454q-46 0-83 17.5t-62.5 42.5-39.5 46q-11 18-10 32t17 25q18 11 30.5 8t25.5-19q18-21 36.5-36t40-23.5 48.5-8.5q46 0 67 36.5t21 112.5v716q0 14 11 20.5t33 6.5 33-6.5 11-20.5v-724q0-69-20-119.5t-59.5-78-99.5-27.5z"/><path transform="translate(14.28 22.274) scale(.014 -.014)" d="m-57-17q-19 0-28 11.5t-9 26 9 26 28 11.5q31 0 61 16t59 46.5 56 73 51 95.5 44.5 114 37.5 129 28.5 141 17.5 149 6 152q0 16 13 24t30.5 8 30.5-8 13-24q0-78-8-157t-22.5-156.5-34.5-151-45.5-141-55.5-126-63-106.5-69-82-73.5-52.5-76.5-18.5zm278 0q-26 0-45 7t-30.5 20-17 32.5-5.5 43.5v873q0 97 34.5 145t102.5 48q44 0 73-20t43.5-59.5 14.5-98.5q0-19-13-28t-30.5-9-30.5 9-13 28q0 34-5 55.5t-15 32-26 10.5-27-11-16.5-35.5-5.5-66.5v-863q0-13 4-21.5t11-12.5 16-4 16.5 3 14.5 8.5 14 10.5q8 7 18 2.5t17-12.5q8-10 8.5-20t-4.5-19q-11-15-28-26t-36-16.5-39-5.5z"/><path transform="translate(19.796 22.274) scale(.014 -.014)" d="m258-17q-57 0-101 27.5t-69 83.5-25 141q0 52 9.5 96t28.5 79 46 59 62 37 77 13q32 0 66-10.5t64-27.5v5q0 15 11 22t33 7 32.5-6.5 10.5-20.5v-392q0-13 4-21.5t11-12.5 16-4q10 0 16.5 2.5t13 7.5 15.5 12q7 6 16 3.5t18-10.5q9-10 10-21t-4-19q-11-16-28-27t-36.5-17-39.5-6q-23 0-40 5t-29 15.5-18.5 25.5-9.5 34q0 1-1 4.5t-1 7.5q-23-37-49.5-57t-54.5-27.5-54-7.5zm-107 256q0-55 13-94.5t39.5-60.5 66.5-21q29 0 55.5 10t49.5 33 41 60v242q-31 19-60 25.5t-61 6.5q-26 0-48-8t-40-24-30.5-40-19-56-6.5-73z"/><path transform="translate(28.504 22.274) scale(.014 -.014)" d="m515-20q16 13 31 25.5t29.5 23.5 27.5 20 24 16q14 8 25.5 3t17.5-17.5 3.5-26.5-15.5-22q-12-8-27.5-20t-33-26-34.5-28.5-34-27.5zm-162-632q-72 0-114 42t-42 120q0 39 9.5 79.5t29.5 83 50 85 70 83.5q17 17 34 33t34.5 32 35.5 30v140q-13-21-30.5-38.5t-39-29.5-45.5-18.5-51-6.5q-58 0-97 20.5t-58.5 61-19.5 101.5v203q0 42-13 56.5t-36 14.5q-17 0-28.5-9t-18-26-8.5-40q-1-16-9-23.5t-26-7.5q-16 0-26 7t-9 33q2 43 17.5 74.5t43 49 64.5 17.5q35 0 60.5-10t42-31 24.5-52 8-73v-183q0-35 11-59t33.5-36 55.5-12q28 0 52 9t43.5 25 34.5 38 25 47v311q0 13 10.5 19.5t32.5 6.5q21 0 32-6.5t11-19.5v-888q0-60-13.5-107t-38.5-79.5-61-49.5-80-17zm5 77q33 0 55.5 20.5t34.5 60.5 12 97v237q-13-10-24-19t-20.5-18-19.5-19q-27-31-47-64.5t-34.5-68-21.5-69-7-67.5q0-28 8-48.5t24-31 40-10.5z"/><path transform="translate(37.814 22.274) scale(.014 -.014)" d="m273-17q-36 0-64.5 11.5t-48.5 34.5-30.5 57-10.5 80v203q0 42-13 56.5t-36 14.5q-17 0-28.5-9t-18-26-8.5-40q-1-16-9-23.5t-26-7.5q-16 0-26 7t-9 33q2 43 17.5 74.5t43 49 64.5 17.5q35 0 60.5-10t42-31 24.5-52 8-73v-183q0-35 8.5-59t27-36 47.5-12q20 0 42 7.5t41.5 26.5 31.5 52.5 12 84.5v259q0 12 10.5 19t32.5 7q23 0 33-7t10-19v-278q0-46 4.5-75t15-45.5 27.5-23 41-6.5q20 0 39.5 6t37 19.5 31 35.5 21.5 52.5 8 71.5q0 38-5.5 75t-17 72.5-30.5 67.5q-11 18-6 31t19 20 29 7q14 0 21-6t14-18q15-23 29.5-59.5t24.5-82.5 10-98q0-42-10-82.5t-29-75-47.5-60.5-65.5-41-83-15q-33 0-62 11t-50.5 33.5-34.5 57.5q-17-33-42-55t-55-33.5-62-11.5z"/><path transform="translate(50.246 22.274) scale(.014 -.014)" d="m-55-17q-19 0-28.5 11.5t-10 26 8.5 26 28 11.5q31 0 57 24t47 71.5 37 117.5 26 162l60-9q-9-112-27.5-195t-46.5-137.5-65.5-81.5-85.5-27zm515 0q-26 0-45 7t-31 20.5-18 34-6 46.5q0 28 2.5 64t5 74 5 72.5 2.5 59.5q0 39-9.5 53.5t-35.5 14.5q-28 0-64-10t-70-19.5-55-9.5q-18 0-34.5 19.5t-27.5 48-11 55.5q0 18 6 32t17.5 22 29.5 8q33 0 44-23t11-54q0-7 0-14t-1-15q12 0 39 11t62.5 22 71.5 11q40 0 65-15t36.5-46.5 11.5-82.5q0-23-2.5-58.5t-5-75-5-74.5-2.5-58q0-26 7.5-35.5t22.5-9.5q10 0 18 3t15.5 8.5 14.5 10.5q8 6 18 2t17-12q8-10 8.5-20t-4.5-19q-11-15-27.5-26t-36-16.5-39.5-5.5z"/><path transform="translate(58.198 22.274) scale(.014 -.014)" d="m193-17q-52 0-75.5 27t-23.5 76v403q0 13 10.5 19.5t31.5 6.5q22 0 33-6.5t11-19.5v-393q0-20 9-29t22-9q11 0 18.5 3.5t14 8.5 14.5 11q6 5 16.5 1t16.5-12q8-9 9-19t-5-18q-11-16-27.5-27t-36-17-38.5-6zm-55 686q-28 0-42.5 15.5t-14.5 46.5q0 32 14.5 48t42.5 16q27 0 41-16t14-48q1-31-13.5-46.5t-41.5-15.5z"/><path transform="translate(62.398 22.274) scale(.014 -.014)" d="m243-17q-42 0-69.5 15.5t-41 44-13.5 68.5v309h-78q-15 0-21 9t-6 31q0 23 6 31.5t21 8.5h78v204q0 13 10.5 19.5t31.5 6.5q22 0 33-6.5t11-19.5v-204h126q15 0 21.5-8.5t6.5-31.5q0-22-6.5-31t-21.5-9h-126v-299q0-34 9.5-48.5t34.5-14.5q23 0 39.5 11t34.5 27q12 11 22.5 7.5t19.5-12.5q11-10 11.5-20.5t-5.5-19.5q-17-25-38-40t-44-21.5-46-6.5z"/><path transform="translate(67.83 22.274) scale(.014 -.014)" d="m300-17q-40 0-77.5 17t-69 48-55 73.5-36.5 93-13 106.5q0 34 8 64.5t23 55 36 42 47 27 56 9.5q57 0 92.5-23t51.5-60.5 16-80.5q0-34-12.5-70t-34.5-70.5-51-66.5q-43-48-98-85.5t-116.5-58.5-126.5-21q-14 0-21 11.5t-5.5 26 12.5 26 33 11.5q46 0 94.5 18t92.5 48 75 65q22 25 37.5 51.5t23.5 53.5 8 52q0 53-20 73.5t-54 20.5q-17 0-31.5-7.5t-25.5-23-17-37.5-6-51q0-57 16.5-104.5t43.5-81.5 57.5-53 57.5-19q19 0 37 7.5t37.5 22.5 39.5 37q14 16 27 15.5t27-11.5 16.5-23-6.5-26q-25-38-58.5-60.5t-67.5-32-63-9.5z"/><path transform="translate(78.246 22.274) scale(.014 -.014)" d="m563-19q-105 0-189.5 42.5t-144.5 120.5-92 185-32 236q0 86 14.5 162t43 141.5 69 116.5 92.5 88 114 56 132 19q59 0 116.5-16t109.5-52 94-98q10-15 7.5-25.5t-17.5-22.5q-14-12-25-13t-23 12q-53 64-117.5 97t-144.5 33q-54 0-103-15.5t-90.5-45-74.5-73-56.5-98.5-35.5-122-12-144q0-116 26.5-209t75-157.5 115.5-98.5 148-34q42 0 80 11t73 31 66 49 60 65q12 15 25 15t27-13q14-11 15.5-23t-8.5-26q-46-67-100.5-110t-114.5-63.5-123-20.5z"/><path transform="translate(91.546 22.274) scale(.014 -.014)" d="m164-21q-43 0-75.5 14t-50.5 41-18 65q0 40 18 71t50 48.5 73 17.5 76-12 68-30 66-38.5 69.5-38.5 78.5-29.5 94-11.5q60 0 106 21t77 57.5 45 82.5q6 17 18.5 22t30.5 0q19-5 24.5-16t0.5-31q-18-65-61-115t-104.5-77.5-135.5-27.5-129.5 16.5-99 41-80.5 48.5-72.5 40.5-75.5 16.5q-25 0-38-14t-13-35q0-22 16.5-35t39.5-13q47 0 74.5 45t27.5 121v611q0 76 18 134.5t52.5 98 85.5 60 118 20.5q63 0 111.5-21.5t83-64.5 52.5-108q7-22 1.5-35t-24.5-18q-22-7-34-0.5t-19 26.5q-14 45-37 76t-56.5 47-79.5 16q-45 0-79.5-14t-58-42.5-35.5-72.5-12-102v-611q0-75-23-130.5t-64.5-85-99.5-29.5z"/></svg>

<?xml version="1.0" encoding="utf-8" ?>
<svg baseProfile="tiny" height="100%" version="1.2" width="100%" xmlns="http://www.w3.org/2000/svg" xmlns:ev="http://www.w3.org/2001/xml-events" xmlns:xlink="http://www.w3.org/1999/xlink"><defs /><g><path d="M500 436Q483 435 474.0 446.0Q465 457 465 474Q465 492 471.5 501.5Q478 511 494 512Q566 515 626.5 532.0Q687 549 735.5 578.0Q784 607 817.5 646.5Q851 686 868.5 735.5Q886 785 886 842Q886 896 864.0 938.5Q842 981 800.0 1009.0Q758 1037 698.0 1051.5Q638 1066 563 1066Q463 1066 382.0 1046.5Q301 1027 236.0 987.0Q171 947 119 888Q108 876 94.5 874.5Q81 873 66 884Q50 897 48.5 910.5Q47 924 58 937Q98 988 151.0 1027.0Q204 1066 268.5 1093.0Q333 1120 408.0 1134.0Q483 1148 568 1148Q667 1148 743.5 1127.5Q820 1107 872.0 1068.0Q924 1029 951.0 972.0Q978 915 978 843Q978 773 956.5 713.0Q935 653 893.5 603.5Q852 554 793.5 518.5Q735 483 661.0 461.5Q587 440 500 436ZM229 -18Q183 -18 146.0 -0.5Q109 17 83.5 42.0Q58 67 44 88Q33 106 34.0 120.0Q35 134 51 145Q69 156 81.5 153.0Q94 150 107 134Q125 113 143.5 98.0Q162 83 183.5 74.5Q205 66 232 66Q278 66 299.0 102.5Q320 139 320 215V931Q320 945 331.0 951.5Q342 958 364 958Q386 958 397.0 951.5Q408 945 408 931V207Q408 138 388.0 87.5Q368 37 328.5 9.5Q289 -18 229 -18Z" transform="translate(0.0, 72) scale(0.072, -0.072)" /><path d="M-57 -17Q-76 -17 -85.0 -5.5Q-94 6 -94.0 20.5Q-94 35 -85.0 46.5Q-76 58 -57 58Q-26 58 4.0 74.0Q34 90 63.0 120.5Q92 151 119.0 193.5Q146 236 170.0 289.0Q194 342 214.5 403.0Q235 464 252.0 532.0Q269 600 280.5 673.0Q292 746 298.0 822.0Q304 898 304 974Q304 990 317.0 998.0Q330 1006 347.5 1006.0Q365 1006 378.0 998.0Q391 990 391 974Q391 896 383.0 817.0Q375 738 360.5 660.5Q346 583 326.0 509.5Q306 436 280.5 368.5Q255 301 225.0 242.5Q195 184 162.0 136.0Q129 88 93.0 54.0Q57 20 19.5 1.5Q-18 -17 -57 -17ZM221 -17Q195 -17 176.0 -10.0Q157 -3 145.5 10.0Q134 23 128.5 42.5Q123 62 123 86V959Q123 1056 157.5 1104.0Q192 1152 260 1152Q304 1152 333.0 1132.0Q362 1112 376.5 1072.5Q391 1033 391 974Q391 955 378.0 946.0Q365 937 347.5 937.0Q330 937 317.0 946.0Q304 955 304 974Q304 1008 299.0 1029.5Q294 1051 284.0 1061.5Q274 1072 258 1072Q242 1072 231.0 1061.0Q220 1050 214.5 1025.5Q209 1001 209 959V96Q209 83 213.0 74.5Q217 66 224.0 62.0Q231 58 240 58Q249 58 256.5 61.0Q264 64 271.0 69.5Q278 75 285 80Q293 87 303.0 82.5Q313 78 320 70Q328 60 328.5 50.0Q329 40 324 31Q313 16 296.0 5.0Q279 -6 260.0 -11.5Q241 -17 221 -17Z" transform="translate(73.44, 72) scale(0.072, -0.072)" /><path d="M258 -17Q201 -17 157.0 10.5Q113 38 88.0 94.0Q63 150 63 235Q63 287 72.5 331.0Q82 375 101.0 410.0Q120 445 147.0 469.0Q174 493 209.0 506.0Q244 519 286 519Q318 519 352.0 508.5Q386 498 416 481V486Q416 501 427.0 508.0Q438 515 460 515Q482 515 492.5 508.5Q503 502 503 488V96Q503 83 507.0 74.5Q511 66 518.0 62.0Q525 58 534 58Q544 58 550.5 60.5Q557 63 563.5 68.0Q570 73 579 80Q586 86 595.0 83.5Q604 81 613 73Q622 63 623.0 52.0Q624 41 619 33Q608 17 591.0 6.0Q574 -5 554.5 -11.0Q535 -17 515 -17Q492 -17 475.0 -12.0Q458 -7 446.0 3.5Q434 14 427.5 29.0Q421 44 418 63Q418 64 417.0 67.5Q416 71 416 75Q393 38 366.5 18.0Q340 -2 312.0 -9.5Q284 -17 258 -17ZM151 239Q151 184 164.0 144.5Q177 105 203.5 84.0Q230 63 270 63Q299 63 325.5 73.0Q352 83 375.0 106.0Q398 129 416 166V408Q385 427 356.0 433.5Q327 440 295 440Q269 440 247.0 432.0Q225 424 207.0 408.0Q189 392 176.5 368.0Q164 344 157.5 312.0Q151 280 151 239Z" transform="translate(101.80799999999999, 72) scale(0.072, -0.072)" /><path d="M515 -20Q531 -7 546.0 5.5Q561 18 575.5 29.0Q590 40 603.0 49.0Q616 58 627 65Q641 73 652.5 68.0Q664 63 670.0 50.5Q676 38 673.5 24.0Q671 10 658 2Q646 -6 630.5 -18.0Q615 -30 597.5 -44.0Q580 -58 563.0 -72.5Q546 -87 529 -100ZM353 -652Q281 -652 239.0 -610.0Q197 -568 197 -490Q197 -451 206.5 -410.5Q216 -370 236.0 -327.5Q256 -285 286.0 -242.5Q316 -200 356 -159Q373 -142 390.0 -126.0Q407 -110 424.5 -94.0Q442 -78 460 -64V76Q447 55 429.5 37.5Q412 20 390.5 8.0Q369 -4 345.0 -10.5Q321 -17 294 -17Q236 -17 197.0 3.5Q158 24 138.5 64.5Q119 105 119 166V369Q119 411 106.0 425.5Q93 440 70 440Q53 440 41.5 431.0Q30 422 23.5 405.0Q17 388 15 365Q14 349 6.0 341.5Q-2 334 -20 334Q-36 334 -46.0 341.0Q-56 348 -55 374Q-53 417 -37.5 448.5Q-22 480 5.5 497.5Q33 515 70 515Q105 515 130.5 505.0Q156 495 172.5 474.0Q189 453 197.0 422.0Q205 391 205 349V166Q205 131 216.0 107.0Q227 83 249.5 71.0Q272 59 305 59Q333 59 357.0 68.0Q381 77 400.5 93.0Q420 109 435.0 131.0Q450 153 460 178V489Q460 502 470.5 508.5Q481 515 503 515Q524 515 535.0 508.5Q546 502 546 489V-399Q546 -459 532.5 -506.0Q519 -553 494.0 -585.5Q469 -618 433.0 -635.0Q397 -652 353 -652ZM358 -575Q391 -575 413.5 -554.5Q436 -534 448.0 -494.0Q460 -454 460 -397V-160Q447 -170 436.0 -179.0Q425 -188 415.5 -197.0Q406 -206 396 -216Q369 -247 349.0 -280.5Q329 -314 314.5 -348.5Q300 -383 293.0 -417.5Q286 -452 286 -485Q286 -513 294.0 -533.5Q302 -554 318.0 -564.5Q334 -575 358 -575Z" transform="translate(146.59199999999998, 72) scale(0.072, -0.072)" /><path d="M273 -17Q237 -17 208.5 -5.5Q180 6 160.0 29.0Q140 52 129.5 86.0Q119 120 119 166V369Q119 411 106.0 425.5Q93 440 70 440Q53 440 41.5 431.0Q30 422 23.5 405.0Q17 388 15 365Q14 349 6.0 341.5Q-2 334 -20 334Q-36 334 -46.0 341.0Q-56 348 -55 374Q-53 417 -37.5 448.5Q-22 480 5.5 497.5Q33 515 70 515Q105 515 130.5 505.0Q156 495 172.5 474.0Q189 453 197.0 422.0Q205 391 205 349V166Q205 131 213.5 107.0Q222 83 240.5 71.0Q259 59 288 59Q308 59 330.0 66.5Q352 74 371.5 93.0Q391 112 403.0 145.5Q415 179 415 230V489Q415 501 425.5 508.0Q436 515 458 515Q481 515 491.0 508.0Q501 501 501 489V211Q501 165 505.5 136.0Q510 107 520.5 90.5Q531 74 548.0 67.5Q565 61 589 61Q609 61 628.5 67.0Q648 73 665.5 86.5Q683 100 696.5 122.0Q710 144 718.0 174.5Q726 205 726 246Q726 284 720.5 321.0Q715 358 703.5 393.5Q692 429 673 461Q662 479 667.0 492.0Q672 505 686.0 512.0Q700 519 715 519Q729 519 736.0 513.0Q743 507 750 495Q765 472 779.5 435.5Q794 399 804.0 353.0Q814 307 814 255Q814 213 804.0 172.5Q794 132 775.0 97.5Q756 63 727.5 37.0Q699 11 662.0 -4.0Q625 -19 579 -19Q546 -19 517.0 -8.0Q488 3 466.5 25.5Q445 48 432 83Q415 50 390.0 28.0Q365 6 335.0 -5.5Q305 -17 273 -17Z" transform="translate(194.47199999999998, 72) scale(0.072, -0.072)" /><path d="M-55 -17Q-74 -17 -83.5 -5.5Q-93 6 -93.5 20.5Q-94 35 -85.0 46.5Q-76 58 -57 58Q-26 58 0.0 82.0Q26 106 47.0 153.5Q68 201 84.0 271.0Q100 341 110 433L170 424Q161 312 142.5 229.0Q124 146 96.0 91.5Q68 37 30.5 10.0Q-7 -17 -55 -17ZM460 -17Q434 -17 415.0 -10.0Q396 -3 384.0 10.5Q372 24 366.0 44.5Q360 65 360 91Q360 119 362.5 155.0Q365 191 367.5 229.0Q370 267 372.5 301.5Q375 336 375 361Q375 400 365.5 414.5Q356 429 330 429Q302 429 266.0 419.0Q230 409 196.0 399.5Q162 390 141 390Q123 390 106.5 409.5Q90 429 79.0 457.5Q68 486 68 513Q68 531 74.0 545.0Q80 559 91.5 567.0Q103 575 121 575Q154 575 165.0 552.0Q176 529 176 498Q176 491 176.0 484.0Q176 477 175 469Q187 469 214.0 480.0Q241 491 276.5 502.0Q312 513 348 513Q388 513 413.0 498.0Q438 483 449.5 451.5Q461 420 461 369Q461 346 458.5 310.5Q456 275 453.5 235.5Q451 196 448.5 161.0Q446 126 446 103Q446 77 453.5 67.5Q461 58 476 58Q486 58 494.0 61.0Q502 64 509.5 69.5Q517 75 524 80Q532 86 542.0 82.0Q552 78 559 70Q567 60 567.5 50.0Q568 40 563 31Q552 16 535.5 5.0Q519 -6 499.5 -11.5Q480 -17 460 -17Z" transform="translate(258.40799999999996, 72) scale(0.072, -0.072)" /><path d="M193 -17Q141 -17 117.5 10.0Q94 37 94 86V489Q94 502 104.5 508.5Q115 515 136 515Q158 515 169.0 508.5Q180 502 180 489V96Q180 76 189.0 67.0Q198 58 211 58Q222 58 229.5 61.5Q237 65 243.5 70.0Q250 75 258 81Q264 86 274.5 82.0Q285 78 291 70Q299 61 300.0 51.0Q301 41 295 33Q284 17 267.5 6.0Q251 -5 231.5 -11.0Q212 -17 193 -17ZM138 669Q110 669 95.5 684.5Q81 700 81 731Q81 763 95.5 779.0Q110 795 138 795Q165 795 179.0 779.0Q193 763 193 731Q194 700 179.5 684.5Q165 669 138 669Z" transform="translate(299.304, 72) scale(0.072, -0.072)" /><path d="M243 -17Q201 -17 173.5 -1.5Q146 14 132.5 42.5Q119 71 119 111V420H41Q26 420 20.0 429.0Q14 438 14 460Q14 483 20.0 491.5Q26 500 41 500H119V704Q119 717 129.5 723.5Q140 730 161 730Q183 730 194.0 723.5Q205 717 205 704V500H331Q346 500 352.5 491.5Q359 483 359 460Q359 438 352.5 429.0Q346 420 331 420H205V121Q205 87 214.5 72.5Q224 58 249 58Q272 58 288.5 69.0Q305 80 323 96Q335 107 345.5 103.5Q356 100 365 91Q376 81 376.5 70.5Q377 60 371 51Q354 26 333.0 11.0Q312 -4 289.0 -10.5Q266 -17 243 -17Z" transform="translate(320.904, 72) scale(0.072, -0.072)" /><path d="M300 -17Q260 -17 222.5 0.0Q185 17 153.5 48.0Q122 79 98.5 121.5Q75 164 62.0 214.5Q49 265 49 321Q49 355 57.0 385.5Q65 416 80.0 440.5Q95 465 116.0 482.5Q137 500 163.0 509.5Q189 519 219 519Q276 519 311.5 496.0Q347 473 363.0 435.5Q379 398 379 355Q379 321 366.5 285.0Q354 249 332.0 214.5Q310 180 281 148Q238 100 183.0 62.5Q128 25 66.5 4.0Q5 -17 -60 -17Q-74 -17 -81.0 -5.5Q-88 6 -86.5 20.5Q-85 35 -74.0 46.5Q-63 58 -41 58Q5 58 53.5 76.0Q102 94 146.0 124.0Q190 154 221 189Q243 214 258.5 240.5Q274 267 282.0 294.0Q290 321 290 346Q290 399 270.0 419.5Q250 440 216 440Q199 440 184.5 432.5Q170 425 159.0 409.5Q148 394 142.0 372.0Q136 350 136 321Q136 264 152.5 216.5Q169 169 196.0 135.0Q223 101 253.5 82.0Q284 63 311 63Q330 63 348.0 70.5Q366 78 385.5 93.0Q405 108 425 130Q439 146 452.0 145.5Q465 145 479 134Q493 123 495.5 111.0Q498 99 489 85Q464 47 430.5 24.5Q397 2 363.0 -7.5Q329 -17 300 -17Z" transform="translate(348.84, 72) scale(0.072, -0.072)" /><path d="M563 -19Q458 -19 373.5 23.5Q289 66 229.0 144.0Q169 222 137.0 329.0Q105 436 105 565Q105 651 119.5 727.0Q134 803 162.5 868.5Q191 934 231.5 985.0Q272 1036 324.0 1073.0Q376 1110 438.0 1129.0Q500 1148 570 1148Q629 1148 686.5 1132.0Q744 1116 796.0 1080.0Q848 1044 890 982Q900 967 897.5 956.5Q895 946 880 934Q866 922 855.0 921.0Q844 920 832 933Q779 997 714.5 1030.0Q650 1063 570 1063Q516 1063 467.0 1047.5Q418 1032 376.5 1002.5Q335 973 302.0 929.5Q269 886 245.5 831.0Q222 776 210.0 709.0Q198 642 198 565Q198 449 224.5 356.0Q251 263 299.5 198.5Q348 134 415.0 100.0Q482 66 563 66Q605 66 643.0 77.0Q681 88 716.0 108.0Q751 128 782.0 157.0Q813 186 842 222Q854 237 867.0 237.0Q880 237 894 224Q908 213 909.5 201.0Q911 189 901 175Q855 108 800.5 65.0Q746 22 686.0 1.5Q626 -19 563 -19Z" transform="translate(402.408, 72) scale(0.072, -0.072)" /><path d="M164 -21Q121 -21 88.5 -7.0Q56 7 38.0 34.0Q20 61 20 99Q20 139 38.0 170.0Q56 201 88.0 218.5Q120 236 161 236Q202 236 237.0 224.0Q272 212 305.0 194.0Q338 176 371.0 155.5Q404 135 440.5 117.0Q477 99 519.0 87.5Q561 76 613 76Q673 76 719.0 97.0Q765 118 796.0 154.5Q827 191 841 237Q847 254 859.5 259.0Q872 264 890 259Q909 254 914.5 243.0Q920 232 915 212Q897 147 854.0 97.0Q811 47 749.5 19.5Q688 -8 614 -8Q540 -8 484.5 8.5Q429 25 385.5 49.5Q342 74 305.0 98.0Q268 122 232.5 138.5Q197 155 157 155Q132 155 119.0 141.0Q106 127 106 106Q106 84 122.5 71.0Q139 58 162 58Q209 58 236.5 103.0Q264 148 264 224V835Q264 911 282.0 969.5Q300 1028 334.5 1067.5Q369 1107 420.0 1127.5Q471 1148 538 1148Q601 1148 649.5 1126.5Q698 1105 732.5 1062.0Q767 1019 785 954Q792 932 786.5 919.0Q781 906 762 901Q740 894 728.0 900.5Q716 907 709 927Q695 972 672.0 1003.0Q649 1034 615.5 1050.0Q582 1066 536 1066Q491 1066 456.5 1052.0Q422 1038 398.5 1009.5Q375 981 363.0 937.0Q351 893 351 835V224Q351 149 328.0 93.5Q305 38 263.5 8.5Q222 -21 164 -21Z" transform="translate(470.808, 72) scale(0.072, -0.072)" /></g></svg>
